assets/2023/icons/protoFile.svg

<svg width="16" height="16" viewBox="0 0 16 16" fill="none" xmlns="http://www.w3.org/2000/svg">
<rect x="2.5" y="2.5" width="11" height="11" rx="1.5" fill="#EDF3FF" stroke="#3574F0"/>
<path d="M5.99902 4.97998H8.51882C8.92589 4.97998 9.28279 5.05451 9.58952 5.20358C9.89912 5.35265 10.1371 5.56478 10.3033 5.83998C10.4725 6.11518 10.557 6.43338 10.557 6.79458C10.557 7.15865 10.471 7.47828 10.299 7.75348C10.1299 8.02868 9.88909 8.24225 9.57662 8.39418C9.26416 8.54611 8.90009 8.62208 8.48442 8.62208H6.97942V11H5.99902V4.97998ZM8.47582 7.77498C8.68796 7.77498 8.87429 7.73628 9.03482 7.65888C9.19536 7.57861 9.31862 7.46538 9.40462 7.31918C9.49062 7.17011 9.53362 6.99668 9.53362 6.79888C9.53362 6.60108 9.49062 6.42908 9.40462 6.28288C9.31862 6.13668 9.19536 6.02488 9.03482 5.94748C8.87429 5.86721 8.68796 5.82708 8.47582 5.82708H6.97942V7.77498H8.47582Z" fill="#3574F0"/>
</svg>

<svg xmlns="http://www.w3.org/2000/svg" width="16" height="16" fill="none" viewBox="0 0 16 16"><rect width="11" height="11" x="2.5" y="2.5" fill="#EDF3FF" stroke="#3574F0" rx="1.5"/><path fill="#3574F0" d="M5.999 4.98h2.52q.61 0 1.07.224.465.223.714.636.255.412.254.955 0 .546-.258.958-.255.414-.722.641a2.5 2.5 0 0 1-1.093.228H6.98V11H6zm2.477 2.795q.318 0 .559-.116a.87.87 0 0 0 .37-.34q.129-.223.129-.52a1 1 0 0 0-.13-.516.84.84 0 0 0-.37-.336q-.24-.12-.558-.12H6.979v1.948z"/></svg>
